src/_common/components/Icon/icons/add-receipt.svg

<svg viewBox="0 0 24 16" fill="none" xmlns="http://www.w3.org/2000/svg">
  <path
    d="M12.3656 8H11.1156V1.2504H1.25V13.5826C1.42442 13.4936 1.61898 13.4459 1.81847 13.4459C2.14999 13.4459 2.46793 13.5776 2.70235 13.812L3.27324 14.3829L3.84413 13.812C4.07855 13.5776 4.39649 13.4459 4.72802 13.4459C5.05954 13.4459 5.37748 13.5776 5.6119 13.812L6.18279 14.3829L6.75368 13.812C6.9881 13.5776 7.30604 13.4459 7.63756 13.4459C7.64171 13.4459 7.64586 13.4459 7.65 13.4459V14.7083L7.63756 14.6959L6.43851 15.8949C6.37042 15.9622 6.27854 16 6.18279 16C6.08704 16 5.99516 15.9622 5.92707 15.8949L4.72802 14.6959L3.52896 15.8949C3.46088 15.9622 3.36899 16 3.27324 16C3.1775 16 3.08561 15.9622 3.01752 15.8949L1.81847 14.6959L0.619418 15.8949C0.568563 15.9452 0.504019 15.9794 0.433854 15.9931C0.363689 16.0069 0.291016 15.9997 0.224921 15.9725C0.158825 15.9452 0.102239 15.899 0.0622353 15.8397C0.0222318 15.7805 0.000585959 15.7107 3.3851e-06 15.6392V0.364093C-0.000388261 0.273265 0.0332171 0.185576 0.0942106 0.118273C0.155204 0.0509699 0.239172 0.00892237 0.3296 0.000399745C0.34096 -0.000133248 0.352337 -0.000133248 0.363697 0.000399745H12.0019C12.0983 0.000409389 12.1908 0.0387301 12.259 0.106934C12.3272 0.175137 12.3656 0.267639 12.3656 0.364093V8Z"
    fill="black"
  />
  <path d="M2.75 4.5H9.35V5.75H2.75V4.5Z" fill="black" />
  <path d="M6.75 7.5H2.75V8.75H6.75V7.5Z" fill="black" />
  <path
    d="M11.75 10C12.1642 10 12.5 10.3358 12.5 10.75V12.25H14C14.4142 12.25 14.75 12.5858 14.75 13C14.75 13.4142 14.4142 13.75 14 13.75H12.5V15.25C12.5 15.6642 12.1642 16 11.75 16C11.3358 16 11 15.6642 11 15.25V13.75H9.5C9.08579 13.75 8.75 13.4142 8.75 13C8.75 12.5858 9.08579 12.25 9.5 12.25H11V10.75C11 10.3358 11.3358 10 11.75 10Z"
    fill="black"
  />
</svg>

<svg viewBox="0 0 24 16" fill="none" xmlns="http://www.w3.org/2000/svg">
  <path
    d="M12.366 8h-1.25V1.25H1.25v12.333a1.25 1.25 0 0 1 1.452.229l.571.57.571-.57a1.25 1.25 0 0 1 1.768 0l.57.57.572-.57a1.25 1.25 0 0 1 .884-.366h.012v1.262l-.012-.012-1.2 1.199a.364.364 0 0 1-.51 0l-1.2-1.2-1.199 1.2a.364.364 0 0 1-.511 0l-1.2-1.2-1.199 1.2A.363.363 0 0 1 0 15.639V.364A.364.364 0 0 1 .364 0h11.638a.364.364 0 0 1 .364.364V8Z"
    fill="currentColor"
  />
  <path
    d="M2.75 4.5h6.6v1.25h-6.6V4.5ZM6.75 7.5h-4v1.25h4V7.5ZM11.75 10a.75.75 0 0 1 .75.75v1.5H14a.75.75 0 0 1 0 1.5h-1.5v1.5a.75.75 0 0 1-1.5 0v-1.5H9.5a.75.75 0 0 1 0-1.5H11v-1.5a.75.75 0 0 1 .75-.75Z"
    fill="currentColor"
  />
</svg>
